X:1
T:Title
%%score { ( 1 3 ) | ( 2 4 ) }
L:1/8
M:6/8
K:C
V:1 treble nm="Grand Piano"
V:3 treble 
V:2 bass 
V:4 bass 
V:1
 z3 z2[Q:1/4=90] [EG] | [EG][DF][CE] [Ec]2 [_EA] | [G,EG]3 [CEG]2 [A,DF] | %3
 [G,CE]2 [G,CE] [G,B,E]2 [F,B,D] |[M:5/8] [E,C]-[E,C]- [E,C]3 |[M:1/8][K:treble] [EG] | %6
[M:3/4] [EG][DF] [CE] [Ec]2 [FA] | [EG]3 [EG]2 [_EA] | B2 Bc A[^Fd] |[M:5/8] d-d- d3 | %10
[M:1/8] [^Fd] |[M:3/4] de f e2 d | [Ec]3 [Ec]2 [DE] | [CE]2 [CE] c2 B |[M:5/8] A-A- A3 |[M:1/8] A | %16
[M:3/4] A2 [Ac][Ac] B[CFA] | E2- [Ec][Ge] dc | d2 [Fd] c2 [DB] |[M:5/8] [Ec]-[Ec]- [Ec]3 | %20
[M:1/8] [G,G] |[M:3/4] e2- [Ge] e2- [Ge] | E-[Ec] [Ge] d2 G | d3 d3 |[M:5/8] GBd [CEc]2 | %25
[M:1/8] [E_Bc] |[M:3/4] c4 z2 | [EG]2 [_E^F][=EG] [Ec][Ge] | [Fd]2 [Fd] c2 [DB] | %29
[M:5/8] [Ec]-[Ec]- [Ec]3 |] %30
V:2
 z3 z2 [C,C] | [C,C]2 [C,G,] [C,G,]2 [C,^F,] | C,3 C,2 F,, | G,,2 G,, G,,2 G,, | %4
[M:5/8] C,-C,- C,3 |[M:1/8] [C,C] |[M:3/4] [C,C]2 [C,G,] [C,G,]2 [C,A,] | [C,C]3 [C,C]2 [C,C] | %8
 [D,G,D]2 [D,G,D] [D,^F,D]2 [D,C] |[M:5/8][K:treble] [B,G]2 z z2 |[M:1/8] [D,C] | %11
[M:3/4] [G,G]2 z2 z2 | [C,G,]3 [C,G,]2 [B,,^G,] | [A,,A,]2 [A,,A,] [E,^G,E]2 [E,G,D] | %14
[M:5/8] [F,A,C]-[F,A,C]- [F,A,C]3 |[M:1/8] [F,CF] |[M:3/4] [F,CF]2 .[F,F]2 GF, | %17
 C,2 .G,2[K:treble] F[A,E] | [F,A,F]2 [D,A,] [G,E]2 [G,,G,] |[M:5/8] [C,G,]-[C,G,]- [C,G,]3 | %20
[M:1/8] z |[M:3/4] [C,C]2 [C,C] [C,C]2 [C,C] | [C,C]2 [C,C][K:treble] [G,B,F]2 [G,B,F] | %23
 [G,B,F]2 [G,B,] [G,B,F]2 [G,B,] |[M:5/8] [G,B,F]2 [G,B,F][K:bass] C,2 |[M:1/8] C, | %26
[M:3/4] F,2 F, F,2 F, | [C,C]2 [C,C] [C,C]2 [C,C] | [F,A,]2 [D,A,] [G,E]2 [G,,G,] | %29
[M:5/8] [C,G,]-[C,G,]- [C,G,]3 |] %30
V:3
 x6 | x6 | x6 | x6 |[M:5/8] x5 |[M:1/8][K:treble] x |[M:3/4] x6 | x6 | x6 |[M:5/8] z2 A B2 | %10
[M:1/8] x |[M:3/4] x6 | x6 | x6 |[M:5/8] x5 |[M:1/8] x |[M:3/4] x6 | [CG]2 z2 z2 | x6 |[M:5/8] x5 | %20
[M:1/8] x |[M:3/4] G2 z .G3 | .G2 z2 z2 | z2 .F2 z F |[M:5/8] x5 |[M:1/8] x | %26
[M:3/4] [FA]2 [FA] [FAc]2 [CFA] | x6 | x6 |[M:5/8] x5 |] %30
V:4
 x6 | x6 | x6 | x6 |[M:5/8] x5 |[M:1/8] x |[M:3/4] x6 | x6 | x6 | %9
[M:5/8][K:treble] G,2- [G,-C] [G,D]2 |[M:1/8] x |[M:3/4] B,C [G,DG] [G,B,G]2 [G,B,F] | x6 | x6 | %14
[M:5/8] x5 |[M:1/8] x |[M:3/4] z2 z .[F,E]3 | z2 z .[C,C]3[K:treble] | x6 |[M:5/8] x5 |[M:1/8] x | %21
[M:3/4] x6 | x3[K:treble] x3 | x6 |[M:5/8] x3[K:bass] x2 |[M:1/8] x |[M:3/4] x6 | x6 | x6 | %29
[M:5/8] x5 |] %30

